assets/bank-tab/Asset/Home Loan.svg

<svg width="28" height="28" viewBox="0 0 28 28" fill="none" xmlns="http://www.w3.org/2000/svg">
<path d="M12.0362 3.13144C12.6935 2.69229 13.0221 2.47271 13.4344 2.37617C13.7734 2.29679 14.2033 2.30082 14.5407 2.38653C14.9512 2.49078 15.2792 2.71895 15.9352 3.17529C19.5291 5.67532 21.9684 7.99576 24.9833 11.0689C25.5666 11.6635 25.8583 11.9608 25.8767 12.2172C25.8927 12.4393 25.8013 12.657 25.6316 12.8011C25.4356 12.9675 25.0183 12.9675 24.1837 12.9675H22.75C23.1512 17.3701 23.127 19.9694 22.8697 23.9336C22.8303 24.54 22.8107 24.8431 22.6782 25.0763C22.5622 25.2805 22.3845 25.4471 22.1732 25.5496C21.9319 25.6667 21.6257 25.6667 21.0133 25.6667H18.2C17.5466 25.6667 17.2199 25.6667 16.9703 25.5395C16.7508 25.4277 16.5723 25.2492 16.4605 25.0297C16.3333 24.7801 16.3333 24.4534 16.3333 23.8V18.2175C16.3333 16.9288 15.2886 15.8842 14 15.8842C12.7113 15.8842 11.6666 16.9288 11.6666 18.2175V23.8C11.6666 24.4534 11.6666 24.7801 11.5395 25.0297C11.4276 25.2492 11.2491 25.4277 11.0296 25.5395C10.7801 25.6667 10.4534 25.6667 9.79996 25.6667H6.99702C6.38135 25.6667 6.07351 25.6667 5.83143 25.5486C5.61946 25.4452 5.44132 25.2772 5.32578 25.0716C5.19383 24.8368 5.17607 24.5321 5.14054 23.9226C4.90982 19.9648 4.90542 17.366 5.24996 12.9675H3.76871C2.94665 12.9675 2.53561 12.9675 2.34019 12.8029C2.17087 12.6603 2.07867 12.4448 2.09245 12.2239C2.10835 11.9689 2.39165 11.6722 2.95825 11.0786C5.96648 7.9273 8.38285 5.57257 12.0362 3.13144Z" fill="#8F242A"/>
</svg>

<svg xmlns="http://www.w3.org/2000/svg" width="28" height="28" fill="none" viewBox="0 0 28 28"><path fill="#8f242a" d="M12.036 3.131c.658-.439.986-.658 1.398-.755.34-.08.77-.075 1.107.01.41.105.738.333 1.394.79 3.594 2.5 6.033 4.82 9.048 7.893.584.595.875.892.894 1.148a.7.7 0 0 1-.245.584c-.196.166-.614.166-1.448.166H22.75c.401 4.403.377 7.002.12 10.967-.04.606-.06.91-.192 1.142a1.2 1.2 0 0 1-.505.474c-.241.117-.547.117-1.16.117H18.2c-.653 0-.98 0-1.23-.128a1.17 1.17 0 0 1-.51-.51c-.127-.249-.127-.576-.127-1.229v-5.582a2.333 2.333 0 1 0-4.666 0V23.8c0 .653 0 .98-.127 1.23-.112.22-.29.398-.51.51-.25.127-.577.127-1.23.127H6.997c-.616 0-.923 0-1.166-.118a1.17 1.17 0 0 1-.505-.477c-.132-.235-.15-.54-.185-1.15-.231-3.957-.236-6.556.109-10.955H3.769c-.822 0-1.233 0-1.429-.164a.7.7 0 0 1-.248-.58c.016-.254.3-.55.866-1.144 3.008-3.152 5.425-5.506 9.078-7.948"/></svg>
